packages/radix-icons/twoTone/15/trash.svg

<svg width="15" height="15" fill="none" xmlns="http://www.w3.org/2000/svg">
  <path
    fill-rule="evenodd"
    clip-rule="evenodd"
    d="M5.5 2C5.22386 2 5 2.22386 5 2.5C5 2.77614 5.22386 3 5.5 3H9.5C9.77614 3 10 2.77614 10 2.5C10 2.22386 9.77614 2 9.5 2H5.5ZM3 4.5C3 4.22386 3.22386 4 3.5 4H5H10H11.5C11.7761 4 12 4.22386 12 4.5C12 4.77614 11.7761 5 11.5 5H11V12C11 12.5523 10.5523 13 10 13H5C4.44772 13 4 12.5523 4 12V5H3.5C3.22386 5 3 4.77614 3 4.5Z"
    fill="currentColor"
    opacity=".2"
  />
  <path
    fill-rule="evenodd"
    clip-rule="evenodd"
    d="M5.5 2C5.22386 2 5 2.22386 5 2.5C5 2.77614 5.22386 3 5.5 3H9.5C9.77614 3 10 2.77614 10 2.5C10 2.22386 9.77614 2 9.5 2H5.5ZM3 4.5C3 4.22386 3.22386 4 3.5 4H5H10H11.5C11.7761 4 12 4.22386 12 4.5C12 4.77614 11.7761 5 11.5 5H11V12C11 12.5523 10.5523 13 10 13H5C4.44772 13 4 12.5523 4 12V5H3.5C3.22386 5 3 4.77614 3 4.5ZM5 5H10V12H5V5Z"
    fill="currentColor"
  />
</svg>

<svg width="15" height="15" fill="none" xmlns="http://www.w3.org/2000/svg">
  <path
    fill-rule="evenodd"
    clip-rule="evenodd"
    d="M5.5 2a.5.5 0 000 1h4a.5.5 0 000-1h-4zM3 4.5a.5.5 0 01.5-.5h8a.5.5 0 010 1H11v7a1 1 0 01-1 1H5a1 1 0 01-1-1V5h-.5a.5.5 0 01-.5-.5z"
    fill="currentColor"
    opacity=".2"
  />
  <path
    fill-rule="evenodd"
    clip-rule="evenodd"
    d="M5.5 2a.5.5 0 000 1h4a.5.5 0 000-1h-4zM3 4.5a.5.5 0 01.5-.5h8a.5.5 0 010 1H11v7a1 1 0 01-1 1H5a1 1 0 01-1-1V5h-.5a.5.5 0 01-.5-.5zM5 5h5v7H5V5z"
    fill="currentColor"
  />
</svg>
